!!!SOCIAL_FUNCTION:	songs of medicine men's dance
!!!PDT:	1956
!!!OTL: No_15_Song_of_Medicine_Men's_Dance_(a).krn
!!!LANG: Non-Tone
!!!LING_GROUP: Muskogean
!!!REG: Florida
**kern
*staff1
=1-
*clefF4
*k[f#c#g#d#a#]
*M3/4
8.B\L
16c#\Jk
(4..B\
16G#\)
=2||
*M2/4
8.G#\L
16B\Jk
4G#\
=3
16E\LK
8.E\J
8.E\L
16D#\Jk
=4
4.E\
8r
=5
8.E\L
16D#\Jk
8.E\L
16E\Jk
=6||
*M7/8
8.B\L
16B\K
8B\
8G#\
8G#\
8G#\
8G#\J
=7||
*M3/4
8.B\L
16A#\Jk
8.G#\L
16E\Jk
8E\L
8E\J
=8
8.G#\L
16B\Jk
8.G#\L
16E\Jk
8E\L
16E\Jk
16r
=9
4E\
8.E/L
32C#/Jkk
32r
4E\
=10
16B\LK
8G#\
16G#\Jk
8.G#\L
16E\Jk
8E\L
16E\Jk
16r
=11
8.G#\L
16A#\Jk
8.G#\L
16E\Jk
8E\L
16E\Jk
16r
=12||
*M2/4
4E\
8.E/L
16C#/Jk
=13
2E\
==
*-
